images/3234923.svg

<?xml version="1.0" encoding="UTF-8"?>
<svg xmlns="http://www.w3.org/2000/svg" xmlns:xlink="http://www.w3.org/1999/xlink" width="300pt" height="300pt" viewBox="0 0 300 300" version="1.1">
<defs>
<g>
<symbol overflow="visible" id="glyph0-0">
<path style="stroke:none;" d="M 0.453125 1.59375 L 0.453125 -6.34375 L 4.953125 -6.34375 L 4.953125 1.59375 Z M 0.953125 1.09375 L 4.453125 1.09375 L 4.453125 -5.84375 L 0.953125 -5.84375 Z M 0.953125 1.09375 "/>
</symbol>
<symbol overflow="visible" id="glyph0-1">
<path style="stroke:none;" d="M 0.890625 -6.5625 L 2.078125 -6.5625 L 4.984375 -1.078125 L 4.984375 -6.5625 L 5.84375 -6.5625 L 5.84375 0 L 4.65625 0 L 1.75 -5.484375 L 1.75 0 L 0.890625 0 Z M 0.890625 -6.5625 "/>
</symbol>
<symbol overflow="visible" id="glyph0-2">
<path style="stroke:none;" d="M 3.546875 -5.953125 C 2.898438 -5.953125 2.382812 -5.710938 2 -5.234375 C 1.625 -4.753906 1.4375 -4.101562 1.4375 -3.28125 C 1.4375 -2.445312 1.625 -1.789062 2 -1.3125 C 2.382812 -0.832031 2.898438 -0.59375 3.546875 -0.59375 C 4.191406 -0.59375 4.703125 -0.832031 5.078125 -1.3125 C 5.453125 -1.789062 5.640625 -2.445312 5.640625 -3.28125 C 5.640625 -4.101562 5.453125 -4.753906 5.078125 -5.234375 C 4.703125 -5.710938 4.191406 -5.953125 3.546875 -5.953125 Z M 3.546875 -6.6875 C 4.460938 -6.6875 5.195312 -6.375 5.75 -5.75 C 6.300781 -5.132812 6.578125 -4.3125 6.578125 -3.28125 C 6.578125 -2.238281 6.300781 -1.410156 5.75 -0.796875 C 5.195312 -0.179688 4.460938 0.125 3.546875 0.125 C 2.617188 0.125 1.878906 -0.179688 1.328125 -0.796875 C 0.773438 -1.410156 0.5 -2.238281 0.5 -3.28125 C 0.5 -4.3125 0.773438 -5.132812 1.328125 -5.75 C 1.878906 -6.375 2.617188 -6.6875 3.546875 -6.6875 Z M 3.546875 -6.6875 "/>
</symbol>
<symbol overflow="visible" id="glyph0-3">
<path style="stroke:none;" d="M 0.890625 -6.5625 L 1.765625 -6.5625 L 1.765625 -3.875 L 5 -3.875 L 5 -6.5625 L 5.890625 -6.5625 L 5.890625 0 L 5 0 L 5 -3.125 L 1.765625 -3.125 L 1.765625 0 L 0.890625 0 Z M 0.890625 -6.5625 "/>
</symbol>
</g>
</defs>
<g id="surface41161">
<rect x="0" y="0" width="300" height="300" style="fill:rgb(100%,100%,100%);fill-opacity:1;stroke:none;"/>
<path style="fill:none;stroke-width:1.2;stroke-linecap:butt;stroke-linejoin:miter;stroke:rgb(0%,0%,0%);stroke-opacity:1;stroke-miterlimit:10;" d="M 35.25 132.019531 L 52.105469 123.703125 "/>
<path style="fill:none;stroke-width:1.2;stroke-linecap:butt;stroke-linejoin:miter;stroke:rgb(0%,0%,0%);stroke-opacity:1;stroke-miterlimit:10;" d="M 52.105469 123.703125 L 68.742188 132.457031 "/>
<path style="fill:none;stroke-width:1.2;stroke-linecap:butt;stroke-linejoin:miter;stroke:rgb(0%,0%,0%);stroke-opacity:1;stroke-miterlimit:10;" d="M 55.828125 120.664062 L 69.136719 127.667969 "/>
<path style="fill:none;stroke-width:1.2;stroke-linecap:butt;stroke-linejoin:miter;stroke:rgb(100%,0%,0%);stroke-opacity:1;stroke-miterlimit:10;" d="M 55.289062 105.179688 L 53.699219 114.441406 "/>
<path style="fill:none;stroke-width:1.2;stroke-linecap:butt;stroke-linejoin:miter;stroke:rgb(0%,0%,0%);stroke-opacity:1;stroke-miterlimit:10;" d="M 53.699219 114.441406 L 52.105469 123.703125 "/>
<path style="fill:none;stroke-width:1.2;stroke-linecap:butt;stroke-linejoin:miter;stroke:rgb(0%,0%,0%);stroke-opacity:1;stroke-miterlimit:10;" d="M 68.742188 132.457031 L 82.203125 119.339844 "/>
<path style="fill:none;stroke-width:1.2;stroke-linecap:butt;stroke-linejoin:miter;stroke:rgb(0%,0%,0%);stroke-opacity:1;stroke-miterlimit:10;" d="M 68.742188 132.457031 L 71.4375 151.058594 "/>
<path style="fill:none;stroke-width:1.2;stroke-linecap:butt;stroke-linejoin:miter;stroke:rgb(0%,0%,0%);stroke-opacity:1;stroke-miterlimit:10;" d="M 82.203125 119.339844 L 78.046875 110.910156 "/>
<path style="fill:none;stroke-width:1.2;stroke-linecap:butt;stroke-linejoin:miter;stroke:rgb(0%,0%,100%);stroke-opacity:1;stroke-miterlimit:10;" d="M 78.046875 110.910156 L 73.890625 102.484375 "/>
<path style="fill:none;stroke-width:1.2;stroke-linecap:butt;stroke-linejoin:miter;stroke:rgb(0%,0%,0%);stroke-opacity:1;stroke-miterlimit:10;" d="M 77.40625 119.609375 L 74.082031 112.867188 "/>
<path style="fill:none;stroke-width:1.2;stroke-linecap:butt;stroke-linejoin:miter;stroke:rgb(0%,0%,100%);stroke-opacity:1;stroke-miterlimit:10;" d="M 74.082031 112.867188 L 70.757812 106.125 "/>
<path style="fill:none;stroke-width:1.2;stroke-linecap:butt;stroke-linejoin:miter;stroke:rgb(0%,0%,0%);stroke-opacity:1;stroke-miterlimit:10;" d="M 82.203125 119.339844 L 100.730469 122.523438 "/>
<path style="fill:none;stroke-width:1.2;stroke-linecap:butt;stroke-linejoin:miter;stroke:rgb(0%,0%,100%);stroke-opacity:1;stroke-miterlimit:10;" d="M 73.890625 102.484375 L 64.589844 103.832031 "/>
<path style="fill:none;stroke-width:1.2;stroke-linecap:butt;stroke-linejoin:miter;stroke:rgb(100%,0%,0%);stroke-opacity:1;stroke-miterlimit:10;" d="M 64.589844 103.832031 L 55.289062 105.179688 "/>
<path style=" stroke:none;fill-rule:nonzero;fill:rgb(100%,100%,100%);fill-opacity:1;" d="M 70.890625 96.984375 L 77.890625 96.984375 L 77.890625 107.984375 L 70.890625 107.984375 Z M 70.890625 96.984375 "/>
<g style="fill:rgb(0%,0%,100%);fill-opacity:1;">
  <use xlink:href="#glyph0-1" x="70.890625" y="105.647461"/>
</g>
<path style=" stroke:none;fill-rule:nonzero;fill:rgb(100%,100%,100%);fill-opacity:1;" d="M 51.289062 99.679688 L 59.289062 99.679688 L 59.289062 110.679688 L 51.289062 110.679688 Z M 51.289062 99.679688 "/>
<g style="fill:rgb(100%,0%,0%);fill-opacity:1;">
  <use xlink:href="#glyph0-2" x="51.289062" y="108.342773"/>
</g>
<path style="fill:none;stroke-width:1.2;stroke-linecap:butt;stroke-linejoin:miter;stroke:rgb(0%,0%,0%);stroke-opacity:1;stroke-miterlimit:10;" d="M 70.070312 149.320312 L 62.691406 155.140625 "/>
<path style="fill:none;stroke-width:1.2;stroke-linecap:butt;stroke-linejoin:miter;stroke:rgb(100%,0%,0%);stroke-opacity:1;stroke-miterlimit:10;" d="M 62.691406 155.140625 L 55.308594 160.957031 "/>
<path style="fill:none;stroke-width:1.2;stroke-linecap:butt;stroke-linejoin:miter;stroke:rgb(0%,0%,0%);stroke-opacity:1;stroke-miterlimit:10;" d="M 72.808594 152.792969 L 65.429688 158.613281 "/>
<path style="fill:none;stroke-width:1.2;stroke-linecap:butt;stroke-linejoin:miter;stroke:rgb(100%,0%,0%);stroke-opacity:1;stroke-miterlimit:10;" d="M 65.429688 158.613281 L 58.046875 164.429688 "/>
<path style="fill:none;stroke-width:1.2;stroke-linecap:butt;stroke-linejoin:miter;stroke:rgb(0%,0%,0%);stroke-opacity:1;stroke-miterlimit:10;" d="M 71.4375 151.058594 L 80.167969 154.539062 "/>
<path style="fill:none;stroke-width:1.2;stroke-linecap:butt;stroke-linejoin:miter;stroke:rgb(0%,0%,100%);stroke-opacity:1;stroke-miterlimit:10;" d="M 80.167969 154.539062 L 88.898438 158.023438 "/>
<path style=" stroke:none;fill-rule:nonzero;fill:rgb(100%,100%,100%);fill-opacity:1;" d="M 48.679688 157.195312 L 56.679688 157.195312 L 56.679688 168.195312 L 48.679688 168.195312 Z M 48.679688 157.195312 "/>
<g style="fill:rgb(100%,0%,0%);fill-opacity:1;">
  <use xlink:href="#glyph0-2" x="48.679688" y="165.858398"/>
</g>
<path style="fill:none;stroke-width:1.2;stroke-linecap:butt;stroke-linejoin:miter;stroke:rgb(0%,0%,100%);stroke-opacity:1;stroke-miterlimit:10;" d="M 88.898438 158.023438 L 90.246094 167.324219 "/>
<path style="fill:none;stroke-width:1.2;stroke-linecap:butt;stroke-linejoin:miter;stroke:rgb(0%,0%,0%);stroke-opacity:1;stroke-miterlimit:10;" d="M 90.246094 167.324219 L 91.59375 176.625 "/>
<path style="fill:none;stroke-width:1.2;stroke-linecap:butt;stroke-linejoin:miter;stroke:rgb(0%,0%,0%);stroke-opacity:1;stroke-miterlimit:10;" d="M 103.65625 146.386719 L 96.277344 152.203125 "/>
<path style="fill:none;stroke-width:1.2;stroke-linecap:butt;stroke-linejoin:miter;stroke:rgb(0%,0%,100%);stroke-opacity:1;stroke-miterlimit:10;" d="M 96.277344 152.203125 L 88.898438 158.023438 "/>
<path style=" stroke:none;fill-rule:nonzero;fill:rgb(100%,100%,100%);fill-opacity:1;" d="M 85.898438 152.523438 L 92.898438 152.523438 L 92.898438 163.523438 L 85.898438 163.523438 Z M 85.898438 152.523438 "/>
<g style="fill:rgb(0%,0%,100%);fill-opacity:1;">
  <use xlink:href="#glyph0-1" x="85.898438" y="161.186523"/>
</g>
<path style="fill:none;stroke-width:1.2;stroke-linecap:butt;stroke-linejoin:miter;stroke:rgb(0%,0%,0%);stroke-opacity:1;stroke-miterlimit:10;" d="M 91.59375 176.625 L 109.050781 183.589844 "/>
<path style="fill:none;stroke-width:1.2;stroke-linecap:butt;stroke-linejoin:miter;stroke:rgb(0%,0%,0%);stroke-opacity:1;stroke-miterlimit:10;" d="M 109.050781 183.589844 L 123.8125 171.953125 "/>
<path style="fill:none;stroke-width:1.2;stroke-linecap:butt;stroke-linejoin:miter;stroke:rgb(0%,0%,0%);stroke-opacity:1;stroke-miterlimit:10;" d="M 123.8125 171.953125 L 126.511719 190.550781 "/>
<path style="fill:none;stroke-width:1.2;stroke-linecap:butt;stroke-linejoin:miter;stroke:rgb(0%,0%,0%);stroke-opacity:1;stroke-miterlimit:10;" d="M 123.8125 171.953125 L 121.117188 153.351562 "/>
<path style="fill:none;stroke-width:1.2;stroke-linecap:butt;stroke-linejoin:miter;stroke:rgb(0%,0%,0%);stroke-opacity:1;stroke-miterlimit:10;" d="M 138.574219 160.316406 L 123.8125 171.953125 "/>
<path style="fill:none;stroke-width:1.2;stroke-linecap:butt;stroke-linejoin:miter;stroke:rgb(0%,0%,0%);stroke-opacity:1;stroke-miterlimit:10;" d="M 126.511719 190.550781 L 143.96875 197.515625 "/>
<path style="fill:none;stroke-width:1.2;stroke-linecap:butt;stroke-linejoin:miter;stroke:rgb(0%,0%,0%);stroke-opacity:1;stroke-miterlimit:10;" d="M 143.96875 197.515625 L 158.730469 185.878906 "/>
<path style="fill:none;stroke-width:1.2;stroke-linecap:butt;stroke-linejoin:miter;stroke:rgb(0%,0%,0%);stroke-opacity:1;stroke-miterlimit:10;" d="M 158.730469 185.878906 L 157.378906 176.578125 "/>
<path style="fill:none;stroke-width:1.2;stroke-linecap:butt;stroke-linejoin:miter;stroke:rgb(0%,0%,100%);stroke-opacity:1;stroke-miterlimit:10;" d="M 157.378906 176.578125 L 156.03125 167.28125 "/>
<path style="fill:none;stroke-width:1.2;stroke-linecap:butt;stroke-linejoin:miter;stroke:rgb(0%,0%,100%);stroke-opacity:1;stroke-miterlimit:10;" d="M 156.03125 167.28125 L 147.300781 163.796875 "/>
<path style="fill:none;stroke-width:1.2;stroke-linecap:butt;stroke-linejoin:miter;stroke:rgb(0%,0%,0%);stroke-opacity:1;stroke-miterlimit:10;" d="M 147.300781 163.796875 L 138.574219 160.316406 "/>
<path style="fill:none;stroke-width:1.2;stroke-linecap:butt;stroke-linejoin:miter;stroke:rgb(0%,0%,100%);stroke-opacity:1;stroke-miterlimit:10;" d="M 156.03125 167.28125 L 163.410156 161.460938 "/>
<path style="fill:none;stroke-width:1.2;stroke-linecap:butt;stroke-linejoin:miter;stroke:rgb(0%,0%,0%);stroke-opacity:1;stroke-miterlimit:10;" d="M 163.410156 161.460938 L 170.792969 155.644531 "/>
<path style=" stroke:none;fill-rule:nonzero;fill:rgb(100%,100%,100%);fill-opacity:1;" d="M 153.03125 161.78125 L 160.03125 161.78125 L 160.03125 172.78125 L 153.03125 172.78125 Z M 153.03125 161.78125 "/>
<g style="fill:rgb(0%,0%,100%);fill-opacity:1;">
  <use xlink:href="#glyph0-1" x="153.03125" y="170.444336"/>
</g>
<path style="fill:none;stroke-width:1.2;stroke-linecap:butt;stroke-linejoin:miter;stroke:rgb(0%,0%,0%);stroke-opacity:1;stroke-miterlimit:10;" d="M 172.980469 155.324219 L 171.632812 146.023438 "/>
<path style="fill:none;stroke-width:1.2;stroke-linecap:butt;stroke-linejoin:miter;stroke:rgb(100%,0%,0%);stroke-opacity:1;stroke-miterlimit:10;" d="M 171.632812 146.023438 L 170.28125 136.722656 "/>
<path style="fill:none;stroke-width:1.2;stroke-linecap:butt;stroke-linejoin:miter;stroke:rgb(0%,0%,0%);stroke-opacity:1;stroke-miterlimit:10;" d="M 168.601562 155.960938 L 167.253906 146.660156 "/>
<path style="fill:none;stroke-width:1.2;stroke-linecap:butt;stroke-linejoin:miter;stroke:rgb(100%,0%,0%);stroke-opacity:1;stroke-miterlimit:10;" d="M 167.253906 146.660156 L 165.90625 137.359375 "/>
<path style="fill:none;stroke-width:1.2;stroke-linecap:butt;stroke-linejoin:miter;stroke:rgb(0%,0%,0%);stroke-opacity:1;stroke-miterlimit:10;" d="M 170.792969 155.644531 L 179.519531 159.125 "/>
<path style="fill:none;stroke-width:1.2;stroke-linecap:butt;stroke-linejoin:miter;stroke:rgb(0%,0%,100%);stroke-opacity:1;stroke-miterlimit:10;" d="M 179.519531 159.125 L 188.25 162.609375 "/>
<path style=" stroke:none;fill-rule:nonzero;fill:rgb(100%,100%,100%);fill-opacity:1;" d="M 164.09375 131.542969 L 172.09375 131.542969 L 172.09375 142.542969 L 164.09375 142.542969 Z M 164.09375 131.542969 "/>
<g style="fill:rgb(100%,0%,0%);fill-opacity:1;">
  <use xlink:href="#glyph0-2" x="164.09375" y="140.206055"/>
</g>
<path style="fill:none;stroke-width:1.2;stroke-linecap:butt;stroke-linejoin:miter;stroke:rgb(0%,0%,100%);stroke-opacity:1;stroke-miterlimit:10;" d="M 188.25 162.609375 L 195.628906 156.789062 "/>
<path style="fill:none;stroke-width:1.2;stroke-linecap:butt;stroke-linejoin:miter;stroke:rgb(0%,0%,0%);stroke-opacity:1;stroke-miterlimit:10;" d="M 195.628906 156.789062 L 203.011719 150.972656 "/>
<path style=" stroke:none;fill-rule:nonzero;fill:rgb(100%,100%,100%);fill-opacity:1;" d="M 181.25 157.109375 L 195.25 157.109375 L 195.25 168.109375 L 181.25 168.109375 Z M 181.25 157.109375 "/>
<g style="fill:rgb(0%,0%,100%);fill-opacity:1;">
  <use xlink:href="#glyph0-1" x="181.25" y="165.772461"/>
  <use xlink:href="#glyph0-3" x="188.227539" y="165.772461"/>
</g>
<path style="fill:none;stroke-width:1.2;stroke-linecap:butt;stroke-linejoin:miter;stroke:rgb(0%,0%,0%);stroke-opacity:1;stroke-miterlimit:10;" d="M 203.011719 150.972656 L 220.46875 157.933594 "/>
<path style="fill:none;stroke-width:1.2;stroke-linecap:butt;stroke-linejoin:miter;stroke:rgb(0%,0%,0%);stroke-opacity:1;stroke-miterlimit:10;" d="M 206.394531 147.558594 L 220.359375 153.132812 "/>
<path style="fill:none;stroke-width:1.2;stroke-linecap:butt;stroke-linejoin:miter;stroke:rgb(0%,0%,0%);stroke-opacity:1;stroke-miterlimit:10;" d="M 200.3125 132.371094 L 203.011719 150.972656 "/>
<path style="fill:none;stroke-width:1.2;stroke-linecap:butt;stroke-linejoin:miter;stroke:rgb(0%,0%,0%);stroke-opacity:1;stroke-miterlimit:10;" d="M 220.46875 157.933594 L 235.230469 146.300781 "/>
<path style="fill:none;stroke-width:1.2;stroke-linecap:butt;stroke-linejoin:miter;stroke:rgb(0%,0%,0%);stroke-opacity:1;stroke-miterlimit:10;" d="M 235.230469 146.300781 L 232.53125 127.699219 "/>
<path style="fill:none;stroke-width:1.2;stroke-linecap:butt;stroke-linejoin:miter;stroke:rgb(0%,0%,0%);stroke-opacity:1;stroke-miterlimit:10;" d="M 230.582031 145.074219 L 228.425781 130.191406 "/>
<path style="fill:none;stroke-width:1.2;stroke-linecap:butt;stroke-linejoin:miter;stroke:rgb(0%,0%,0%);stroke-opacity:1;stroke-miterlimit:10;" d="M 232.53125 127.699219 L 215.074219 120.734375 "/>
<path style="fill:none;stroke-width:1.2;stroke-linecap:butt;stroke-linejoin:miter;stroke:rgb(0%,0%,0%);stroke-opacity:1;stroke-miterlimit:10;" d="M 232.53125 127.699219 L 239.910156 121.878906 "/>
<path style="fill:none;stroke-width:1.2;stroke-linecap:butt;stroke-linejoin:miter;stroke:rgb(100%,0%,0%);stroke-opacity:1;stroke-miterlimit:10;" d="M 239.910156 121.878906 L 247.292969 116.0625 "/>
<path style="fill:none;stroke-width:1.2;stroke-linecap:butt;stroke-linejoin:miter;stroke:rgb(0%,0%,0%);stroke-opacity:1;stroke-miterlimit:10;" d="M 215.074219 120.734375 L 200.3125 132.371094 "/>
<path style="fill:none;stroke-width:1.2;stroke-linecap:butt;stroke-linejoin:miter;stroke:rgb(0%,0%,0%);stroke-opacity:1;stroke-miterlimit:10;" d="M 216.335938 125.371094 L 204.527344 134.679688 "/>
<path style="fill:none;stroke-width:1.2;stroke-linecap:butt;stroke-linejoin:miter;stroke:rgb(100%,0%,0%);stroke-opacity:1;stroke-miterlimit:10;" d="M 247.292969 116.0625 L 256.019531 119.542969 "/>
<path style="fill:none;stroke-width:1.2;stroke-linecap:butt;stroke-linejoin:miter;stroke:rgb(0%,0%,0%);stroke-opacity:1;stroke-miterlimit:10;" d="M 256.019531 119.542969 L 264.75 123.027344 "/>
<path style=" stroke:none;fill-rule:nonzero;fill:rgb(100%,100%,100%);fill-opacity:1;" d="M 243.292969 110.5625 L 251.292969 110.5625 L 251.292969 121.5625 L 243.292969 121.5625 Z M 243.292969 110.5625 "/>
<g style="fill:rgb(100%,0%,0%);fill-opacity:1;">
  <use xlink:href="#glyph0-2" x="243.292969" y="119.225586"/>
</g>
<path style="fill:none;stroke-width:1.2;stroke-linecap:butt;stroke-linejoin:miter;stroke:rgb(0%,0%,0%);stroke-opacity:1;stroke-miterlimit:10;" d="M 121.117188 153.351562 L 103.65625 146.386719 "/>
</g>
</svg>

<svg xmlns="http://www.w3.org/2000/svg" xmlns:xlink="http://www.w3.org/1999/xlink" width="300pt" height="300pt" viewBox="0 0 300 300"><defs><symbol overflow="visible"><path d="M.453 1.594v-7.938h4.5v7.938zm.5-.5h3.5v-6.938h-3.5zm0 0"/></symbol><symbol overflow="visible" id="a"><path d="M.89-6.563H2.08l2.906 5.485v-5.484h.86V0H4.656L1.75-5.484V0H.89zm0 0"/></symbol><symbol overflow="visible" id="b"><path d="M3.547-5.953c-.65 0-1.164.242-1.547.72-.375.48-.563 1.13-.563 1.952 0 .835.188 1.49.563 1.967.383.48.898.72 1.547.72.644 0 1.156-.24 1.53-.72.376-.476.564-1.132.564-1.968 0-.822-.187-1.474-.562-1.954-.375-.477-.887-.72-1.53-.72zm0-.734c.914 0 1.648.312 2.203.937.55.617.828 1.438.828 2.47 0 1.042-.277 1.87-.828 2.483-.555.617-1.29.922-2.203.922-.93 0-1.668-.305-2.22-.922C.774-1.41.5-2.237.5-3.28c0-1.033.273-1.853.828-2.47.55-.625 1.29-.938 2.22-.938zm0 0"/></symbol><symbol overflow="visible" id="c"><path d="M.89-6.563h.876v2.688H5v-2.688h.89V0H5v-3.125H1.766V0H.89zm0 0"/></symbol></defs><g><path fill="#fff" d="M0 0h300v300H0z"/><path d="M35.25 132.02l16.855-8.317M52.105 123.703l16.637 8.754M55.828 120.664l13.31 7.004" stroke-width="1.2" stroke="#000" stroke-miterlimit="10" fill="none"/><path d="M55.29 105.18l-1.59 9.26" stroke-width="1.2" stroke="#f00" stroke-miterlimit="10" fill="none"/><path d="M53.7 114.44l-1.595 9.263M68.742 132.457l13.46-13.117M68.742 132.457l2.695 18.602M82.203 119.34l-4.156-8.43" stroke-width="1.2" stroke="#000" stroke-miterlimit="10" fill="none"/><path d="M78.047 110.91l-4.156-8.426" stroke-width="1.2" stroke="#00f" stroke-miterlimit="10" fill="none"/><path d="M77.406 119.61l-3.324-6.743" stroke-width="1.2" stroke="#000" stroke-miterlimit="10" fill="none"/><path d="M74.082 112.867l-3.324-6.742" stroke-width="1.2" stroke="#00f" stroke-miterlimit="10" fill="none"/><path d="M82.203 119.34l18.527 3.183" stroke-width="1.2" stroke="#000" stroke-miterlimit="10" fill="none"/><path d="M73.89 102.484l-9.3 1.348" stroke-width="1.2" stroke="#00f" stroke-miterlimit="10" fill="none"/><path d="M64.59 103.832l-9.3 1.348" stroke-width="1.2" stroke="#f00" stroke-miterlimit="10" fill="none"/><path d="M70.89 96.984h7v11h-7zm0 0" fill="#fff"/><use xlink:href="#a" x="70.891" y="105.647" fill="#00f"/><path d="M51.29 99.68h8v11h-8zm0 0" fill="#fff"/><use xlink:href="#b" x="51.289" y="108.343" fill="#f00"/><path d="M70.07 149.32l-7.38 5.82" stroke-width="1.2" stroke="#000" stroke-miterlimit="10" fill="none"/><path d="M62.69 155.14l-7.38 5.817" stroke-width="1.2" stroke="#f00" stroke-miterlimit="10" fill="none"/><path d="M72.81 152.793l-7.38 5.82" stroke-width="1.2" stroke="#000" stroke-miterlimit="10" fill="none"/><path d="M65.43 158.613l-7.383 5.817" stroke-width="1.2" stroke="#f00" stroke-miterlimit="10" fill="none"/><path d="M71.438 151.06l8.73 3.48" stroke-width="1.2" stroke="#000" stroke-miterlimit="10" fill="none"/><path d="M80.168 154.54l8.73 3.483" stroke-width="1.2" stroke="#00f" stroke-miterlimit="10" fill="none"/><path d="M48.68 157.195h8v11h-8zm0 0" fill="#fff"/><use xlink:href="#b" x="48.68" y="165.858" fill="#f00"/><path d="M88.898 158.023l1.348 9.3" stroke-width="1.2" stroke="#00f" stroke-miterlimit="10" fill="none"/><path d="M90.246 167.324l1.348 9.3M103.656 146.387l-7.38 5.816" stroke-width="1.2" stroke="#000" stroke-miterlimit="10" fill="none"/><path d="M96.277 152.203l-7.38 5.82" stroke-width="1.2" stroke="#00f" stroke-miterlimit="10" fill="none"/><path d="M85.898 152.523h7v11h-7zm0 0" fill="#fff"/><use xlink:href="#a" x="85.898" y="161.187" fill="#00f"/><path d="M91.594 176.625l17.457 6.965M109.05 183.59l14.763-11.637M123.813 171.953l2.7 18.598M123.813 171.953l-2.696-18.6M138.574 160.316l-14.762 11.637M126.512 190.55l17.457 6.966M143.97 197.516l14.76-11.637M158.73 185.88l-1.35-9.302" stroke-width="1.2" stroke="#000" stroke-miterlimit="10" fill="none"/><path d="M157.38 176.578l-1.35-9.297M156.03 167.28l-8.73-3.483" stroke-width="1.2" stroke="#00f" stroke-miterlimit="10" fill="none"/><path d="M147.3 163.797l-8.726-3.48" stroke-width="1.2" stroke="#000" stroke-miterlimit="10" fill="none"/><path d="M156.03 167.28l7.38-5.82" stroke-width="1.2" stroke="#00f" stroke-miterlimit="10" fill="none"/><path d="M163.41 161.46l7.383-5.815" stroke-width="1.2" stroke="#000" stroke-miterlimit="10" fill="none"/><path d="M153.03 161.78h7v11h-7zm0 0" fill="#fff"/><use xlink:href="#a" x="153.031" y="170.444" fill="#00f"/><path d="M172.98 155.324l-1.347-9.3" stroke-width="1.2" stroke="#000" stroke-miterlimit="10" fill="none"/><path d="M171.633 146.023l-1.352-9.3" stroke-width="1.2" stroke="#f00" stroke-miterlimit="10" fill="none"/><path d="M168.602 155.96l-1.348-9.3" stroke-width="1.2" stroke="#000" stroke-miterlimit="10" fill="none"/><path d="M167.254 146.66l-1.348-9.3" stroke-width="1.2" stroke="#f00" stroke-miterlimit="10" fill="none"/><path d="M170.793 155.645l8.727 3.48" stroke-width="1.2" stroke="#000" stroke-miterlimit="10" fill="none"/><path d="M179.52 159.125l8.73 3.484" stroke-width="1.2" stroke="#00f" stroke-miterlimit="10" fill="none"/><path d="M164.094 131.543h8v11h-8zm0 0" fill="#fff"/><use xlink:href="#b" x="164.094" y="140.206" fill="#f00"/><path d="M188.25 162.61l7.38-5.82" stroke-width="1.2" stroke="#00f" stroke-miterlimit="10" fill="none"/><path d="M195.63 156.79l7.382-5.817" stroke-width="1.2" stroke="#000" stroke-miterlimit="10" fill="none"/><path d="M181.25 157.11h14v11h-14zm0 0" fill="#fff"/><g fill="#00f"><use xlink:href="#a" x="181.25" y="165.772"/><use xlink:href="#c" x="188.228" y="165.772"/></g><path d="M203.012 150.973l17.457 6.96M206.395 147.56l13.964 5.573M200.313 132.37l2.7 18.603M220.47 157.934l14.76-11.633M235.23 146.3l-2.7-18.6M230.582 145.074l-2.156-14.883M232.53 127.7l-17.456-6.966M232.53 127.7l7.38-5.82" stroke-width="1.2" stroke="#000" stroke-miterlimit="10" fill="none"/><path d="M239.91 121.88l7.383-5.817" stroke-width="1.2" stroke="#f00" stroke-miterlimit="10" fill="none"/><path d="M215.074 120.734l-14.762 11.637M216.336 125.37l-11.81 9.31" stroke-width="1.2" stroke="#000" stroke-miterlimit="10" fill="none"/><path d="M247.293 116.063l8.727 3.48" stroke-width="1.2" stroke="#f00" stroke-miterlimit="10" fill="none"/><path d="M256.02 119.543l8.73 3.484" stroke-width="1.2" stroke="#000" stroke-miterlimit="10" fill="none"/><path d="M243.293 110.563h8v11h-8zm0 0" fill="#fff"/><use xlink:href="#b" x="243.293" y="119.226" fill="#f00"/><path d="M121.117 153.352l-17.46-6.965" stroke-width="1.2" stroke="#000" stroke-miterlimit="10" fill="none"/></g></svg>
